assets/fc/fc-factory.svg

<svg xmlns="http://www.w3.org/2000/svg" width="100%" height="100%" viewBox="0 0 48 48"><path fill="#BF360C" d="M41.2 5h-7.3L32 43h11L41.2 5z"/><path fill="#E64A19" d="M33 23h-4v-6l-12 6v-6L5 23v20h28V23z"/><path fill="#FFC107" d="M9 27h4v4H9zM17 27h4v4h-4zM25 27h4v4h-4zM9 35h4v4H9zM17 35h4v4h-4zM25 35h4v4h-4z"/></svg>

<svg xmlns="http://www.w3.org/2000/svg" width="100%" height="100%" viewBox="0 0 48 48"><path fill="#BF360C" d="M41.2,5h-7.3L32,43h11L41.2,5z"/><path fill="#E64A19" d="M33,23h-4v-6l-12,6v-6L5,23v20h28V23z"/><path fill="#FFC107" d="M9 27H13V31H9zM17 27H21V31H17zM25 27H29V31H25zM9 35H13V39H9zM17 35H21V39H17zM25 35H29V39H25z"/></svg>
